round/svg/high_quality.svg

<svg xmlns="http://www.w3.org/2000/svg" width="24" height="24"><path d="M19 4H5a2 2 0 0 0-2 2v12a2 2 0 0 0 2 2h14c1.1 0 2-.9 2-2V6c0-1.1-.9-2-2-2zm-8.75 11c-.41 0-.75-.34-.75-.75V13h-2v1.25c0 .41-.34.75-.75.75S6 14.66 6 14.25v-4.5c0-.41.34-.75.75-.75s.75.34.75.75v1.75h2V9.75c0-.41.34-.75.75-.75s.75.34.75.75v4.5c0 .41-.34.75-.75.75zM18 14c0 .55-.45 1-1 1h-.75v.75c0 .41-.34.75-.75.75s-.75-.34-.75-.75V15H14c-.55 0-1-.45-1-1v-4c0-.55.45-1 1-1h3c.55 0 1 .45 1 1v4zm-3.5-.5h2v-3h-2v3z" fill="currentColor"/></svg>

<?xml version="1.0" encoding="utf-8"?>
<!-- Generator: Adobe Illustrator 19.1.0, SVG Export Plug-In . SVG Version: 6.00 Build 0)  -->
<svg version="1.1" xmlns="http://www.w3.org/2000/svg" xmlns:xlink="http://www.w3.org/1999/xlink" x="0px" y="0px" width="24px"
	 height="24px" viewBox="0 0 24 24" enable-background="new 0 0 24 24" xml:space="preserve">
<g id="Bounding_Boxes" display="none">
	<path display="inline" fill="none" d="M0,0h24v24H0V0z"/>
</g>
<g id="Rounded" fill="currentColor">
	<path d="M19,4H5C3.89,4,3,4.9,3,6v12c0,1.1,0.89,2,2,2h14c1.1,0,2-0.9,2-2V6C21,4.9,20.1,4,19,4z M10.25,15L10.25,15
		c-0.41,0-0.75-0.34-0.75-0.75V13h-2v1.25C7.5,14.66,7.16,15,6.75,15h0C6.34,15,6,14.66,6,14.25v-4.5C6,9.34,6.34,9,6.75,9h0
		C7.16,9,7.5,9.34,7.5,9.75v1.75h2V9.75C9.5,9.34,9.84,9,10.25,9h0C10.66,9,11,9.34,11,9.75v4.5C11,14.66,10.66,15,10.25,15z M18,14
		c0,0.55-0.45,1-1,1h-0.75v0.75c0,0.41-0.34,0.75-0.75,0.75h0c-0.41,0-0.75-0.34-0.75-0.75V15H14c-0.55,0-1-0.45-1-1v-4
		c0-0.55,0.45-1,1-1h3c0.55,0,1,0.45,1,1V14z M14.5,13.5h2v-3h-2V13.5z"/>
</g>
</svg>
